X: 40
T: 36. Schottische
B: Sam Bayard, "Hill Country Tunes" 1944 #36
S: Played by Mrs Sarah Armstrong, (near) Derry, PA, Nov 18 1943.
N: In the Ford collection as "Crystal Schottische".
R: reel, hornpipe, shottish
M: 4/4
L: 1/8
Z: 2010 John Chambers <jc:trillian.mit.edu>
K: G
G>A |\
BcBA G2D2 | GGBd g3g | f2AB c2Bc | ed^cd B2G2 |
BcBA G2D2 | GGBd g3g | f2AB cBAF | G4 G2 :: FG |
"a."ABAF A2A2 | "b."defg a3a | b2^c2 [e2A2]c2 | d^cdB A2FG |
ABAF A2A2 | defg a3a | b2^c2 [e2A2]c2 | d2d2 d2 :|
P: VAR:
"a."A3F B2A2 || "b."d2fg |] y8 y8 y8 y8 y8 y8 y8 y8

%%sep 2 1 500
%%sep 1 1 500

